X:2747
T:Polska (SvL Västergötland nr 100)
B:Svenska Låtar, Västergötland, nr 100
B:och på [[http://www.smus.se/earkiv/fmk/browselarge.php?lang=sw&katalogid=Svest+4&bildnr=00022|smus.se]]
H:efter Johannes Öst
N:Uppt. av Olof Andersson 1929
O:Ornunga, Västergötland
R:Polska
S:Johan Albert Pettersson
Z:Per Oldberg 2012-08-09
M:3/4
L:1/8
K:D
A3F DF | FE ED FD | (DF) (Ad) (3faf | ec d2 A2- | A2 DF DF | 
FE ED FD | (DF) (Ad) (3faf | ec [d4f4] :: [D4d4] fa | ag eg (3egb | (3bgb af df | 
f[ee] [ee]c [A2A2] | A2 fa fa | ag eg (3egb | (3bgb af df | ec [d4f4] :|  
(:musicend:)

variant på sista takten

(:music:)
